src/svg/bookmark.svg

<svg version="1.2" baseProfile="tiny" xmlns="http://www.w3.org/2000/svg" width="24" height="24" viewBox="0 0 24 24"><path d="M17 2h-8c-1.654 0-3 1.346-3 3v14c0 .514.104.946.308 1.285.564.935 1.815 1.008 2.813.008l3.172-3.172c.375-.374 1.039-.374 1.414 0l3.172 3.172c.491.491 1.002.74 1.52.74.797 0 1.601-.629 1.601-2.033v-14c0-1.654-1.346-3-3-3zm-8 2h8c.551 0 1 .449 1 1v9.905l-2.451-2.247c-1.406-1.289-3.693-1.288-5.099 0l-2.45 2.247v-9.905c0-.551.449-1 1-1zm6.121 11.707c-.565-.565-1.318-.876-2.121-.876s-1.556.312-2.121.876l-2.879 2.879v-2.324l3.126-2.866c1.033-.947 2.714-.947 3.747 0l3.127 2.866v2.324l-2.879-2.879z"/></svg>

<?xml version="1.0" encoding="iso-8859-1"?>
<!-- Generator: Adobe Illustrator 16.2.1, SVG Export Plug-In . SVG Version: 6.00 Build 0)  -->
<svg version="1.2" baseProfile="tiny" xmlns="http://www.w3.org/2000/svg" xmlns:xlink="http://www.w3.org/1999/xlink" x="0px"
	 y="0px" width="24px" height="24px" viewBox="0 0 24 24" xml:space="preserve">
<g id="Layer_1">
	<path d="M17,2H9C7.346,2,6,3.346,6,5v14c0,0.514,0.104,0.946,0.308,1.285c0.564,0.935,1.815,1.008,2.813,0.008l3.172-3.172
		c0.375-0.374,1.039-0.374,1.414,0l3.172,3.172c0.491,0.491,1.002,0.74,1.52,0.74C19.196,21.033,20,20.404,20,19V5
		C20,3.346,18.654,2,17,2z M9,4h8c0.551,0,1,0.449,1,1v9.905l-2.451-2.247c-1.406-1.289-3.693-1.288-5.099,0L8,14.905V5
		C8,4.449,8.449,4,9,4z M15.121,15.707c-0.565-0.565-1.318-0.876-2.121-0.876s-1.556,0.312-2.121,0.876L8,18.586v-2.324l3.126-2.866
		c1.033-0.947,2.714-0.947,3.747,0L18,16.262v2.324L15.121,15.707z"/>
</g>
<g id="nyt_x5F_exporter_x5F_info" display="none">
</g>
</svg>
